!! George Gerswhin, "Bidin' My Time" from
!! "Bumper Book of George Gerswhin,"
!! London: Chappell Music Ltd., 1987; pp.42-45
**kern
*M4/4
*MM[moderato]
!! Verse
=1
4b-
8.g
16f
4e-
4e-
=2
4a-
4a-
8r
4ff
8dd
=3
4b-
[2.b-
=4
2.b-]
4r
=5
4b-
8.g
16f
4e-
4e-
=6
[2ee-
8.ee-]
16cc
8.b-
16g
=7
!! page 43
[1f
=8
2.f]
4r
=9
4b-
8.g
16f
4e-
4e-
=10
4a-
4a-
8r
4ff
8dd
=11
4b-
[2.b-
=12
4b-]
4r
2r
=13
4dd
8.b-
16an
4g
4b-
=14
4dd
4dd
4dd
4dd
=15
[1dd
=16
2dd]
4r
4b-
=17
!! page 44
!! Refrain
2g
8.a-
16g
4a-
=18
(4.b-
[8f
4.f)]
8f
=19
[4g
8.g]
16g
8.a-
16g
4a-
=20
(4.b-
[8f
4f)]
4b-
=21
8.ee-
16ee-
8.ee-
16ee-
8en
4.cc
=22
4ee-
4cc
8b-
4.a-
=23
2g
8f
4.f
=24
1e-
=25
4.g
[8g
2g]
=26
4.g
[8g
2g]
=27
4an
4a
4g
4f
=28
4.an
[8g
2g]
=29
4.b-
[8b-
2b-]
!! page 45
=30
4.b-
[8b-
2b-]
=31
4ee-
4ee-
4dd
4cc
=32
4.cc
[8b-
4b-]
4a-
=33
2g
(8.a-
16g)
4a-
=34
(4.b-
[8f
4.f)]
8f
=35
[4g
8.g]
16g
8.a-
16g
4a-
=36
(4.b-
[8f
4f)]
4b-
=37
4ee-
4ee-
8een
4.cc
=38
4ee-
4cc
8b-
4.a-
=39
2g
8f
4.f
=40
!! First ending.
[2e-
8e-]
8r
4r
=17
!! page 44
!! Repeat refrain
2g
8.a-
16g
4a-
=18
(4.b-
[8f
4.f)]
8f
=19
[4g
8.g]
16g
8.a-
16g
4a-
=20
(4.b-
[8f
4f)]
4b-
=21
8.ee-
16ee-
8.ee-
16ee-
8en
4.cc
=22
4ee-
4cc
8b-
4.a-
=23
2g
8f
4.f
=24
1e-
=25
4.g
[8g
2g]
=26
4.g
[8g
2g]
=27
4an
4a
4g
4f
=28
4.an
[8g
2g]
=29
4.b-
[8b-
2b-]
!! page 45
=30
4.b-
[8b-
2b-]
=31
4ee-
4ee-
4dd
4cc
=32
4.cc
[8b-
4b-]
4a-
=33
2g
(8.a-
16g)
4a-
=34
(4.b-
[8f
4.f)]
8f
=35
[4g
8.g]
16g
8.a-
16g
4a-
=36
(4.b-
[8f
4f)]
4b-
=37
4ee-
4ee-
8een
4.cc
=38
4ee-
4cc
8b-
4.a-
=39
2g
8f
4.f
!! Second ending.
=40
[2e-
8e-]
8r
4r
====
*-
